gtk-icons/Papirus-GTK/48x48/apps/password-manager.svg

<?xml version="1.0" encoding="UTF-8" standalone="no"?>
<!-- Created with Inkscape (http://www.inkscape.org/) -->

<svg
   xmlns:dc="http://purl.org/dc/elements/1.1/"
   xmlns:cc="http://creativecommons.org/ns#"
   xmlns:rdf="http://www.w3.org/1999/02/22-rdf-syntax-ns#"
   xmlns:svg="http://www.w3.org/2000/svg"
   xmlns="http://www.w3.org/2000/svg"
   xmlns:sodipodi="http://sodipodi.sourceforge.net/DTD/sodipodi-0.dtd"
   xmlns:inkscape="http://www.inkscape.org/namespaces/inkscape"
   width="48"
   height="48"
   viewBox="0 0 48 48.000001"
   id="svg4231"
   version="1.1"
   inkscape:version="0.91 r"
   sodipodi:docname="password-manager.svg">
  <defs
     id="defs4233" />
  <sodipodi:namedview
     id="base"
     pagecolor="#ffffff"
     bordercolor="#666666"
     borderopacity="1.0"
     inkscape:pageopacity="0.0"
     inkscape:pageshadow="2"
     inkscape:zoom="1"
     inkscape:cx="25.318975"
     inkscape:cy="20.228419"
     inkscape:document-units="px"
     inkscape:current-layer="layer1"
     showgrid="false"
     units="px"
     inkscape:window-width="1600"
     inkscape:window-height="846"
     inkscape:window-x="0"
     inkscape:window-y="26"
     inkscape:window-maximized="1" />
  <metadata
     id="metadata4236">
    <rdf:RDF>
      <cc:Work
         rdf:about="">
        <dc:format>image/svg+xml</dc:format>
        <dc:type
           rdf:resource="http://purl.org/dc/dcmitype/StillImage" />
        <dc:title></dc:title>
      </cc:Work>
    </rdf:RDF>
  </metadata>
  <g
     inkscape:label="Layer 1"
     inkscape:groupmode="layer"
     id="layer1"
     transform="translate(0,-1004.3622)">
    <path
       inkscape:connector-curvature="0"
       id="path4444"
       d="m 15,1017.3622 a 10.999999,10.999999 0 0 0 -11,11 10.999999,10.999999 0 0 0 11,11 10.999999,10.999999 0 0 0 10.57227,-8 l 8.42773,0 0,5.0273 6.96484,0 0,-5.0273 3.03516,0 0,-7 -18.75391,0 a 10.999999,10.999999 0 0 0 -10.24609,-7 z"
       style="opacity:1;fill:#4bae4f;fill-opacity:1;stroke:none;stroke-width:8;stroke-linecap:round;stroke-linejoin:miter;stroke-miterlimit:4;stroke-dasharray:none;stroke-opacity:1" />
    <circle
       r="4"
       cy="1029.3622"
       cx="15"
       id="circle4446"
       style="opacity:0.2;fill:#000000;fill-opacity:1;stroke:none;stroke-width:8;stroke-linecap:round;stroke-linejoin:miter;stroke-miterlimit:4;stroke-dasharray:none;stroke-opacity:1" />
    <circle
       style="opacity:1;fill:#f9f9f9;fill-opacity:1;stroke:none;stroke-width:8;stroke-linecap:round;stroke-linejoin:miter;stroke-miterlimit:4;stroke-dasharray:none;stroke-opacity:1"
       id="circle4448"
       cx="15"
       cy="1028.3622"
       r="4" />
    <path
       inkscape:connector-curvature="0"
       id="path4474"
       d="m 15,1017.3622 a 10.999999,10.999999 0 0 0 -11,11 10.999999,10.999999 0 0 0 0.0215,0.4141 10.999999,10.999999 0 0 1 10.9785,-10.4141 10.999999,10.999999 0 0 1 10.24609,7 l 18.75391,0 0,-1 -18.75391,0 a 10.999999,10.999999 0 0 0 -10.24609,-7 z"
       style="opacity:0.2;fill:#ffffff;fill-opacity:1;stroke:none;stroke-width:8;stroke-linecap:round;stroke-linejoin:miter;stroke-miterlimit:4;stroke-dasharray:none;stroke-opacity:1" />
    <path
       style="opacity:0.3;fill:#000000;fill-opacity:1;stroke:none;stroke-width:8;stroke-linecap:round;stroke-linejoin:miter;stroke-miterlimit:4;stroke-dasharray:none;stroke-opacity:1"
       d="M 4.0214844 23.414062 A 10.999999 10.999999 0 0 0 4 24 A 10.999999 10.999999 0 0 0 15 35 A 10.999999 10.999999 0 0 0 25.572266 27 L 34 27 L 34 26 L 25.572266 26 A 10.999999 10.999999 0 0 1 15 34 A 10.999999 10.999999 0 0 1 4.0214844 23.414062 z M 40.964844 26 L 40.964844 27 L 44 27 L 44 26 L 40.964844 26 z M 34 31.027344 L 34 32.027344 L 40.964844 32.027344 L 40.964844 31.027344 L 34 31.027344 z "
       transform="translate(0,1004.3622)"
       id="path4824" />
  </g>
</svg>

<?xml version="1.0" encoding="UTF-8" standalone="no"?>
<!-- Created with Inkscape (http://www.inkscape.org/) -->
<svg id="svg4231" xmlns:rdf="http://www.w3.org/1999/02/22-rdf-syntax-ns#" xmlns="http://www.w3.org/2000/svg" height="48" width="48" version="1.1" xmlns:cc="http://creativecommons.org/ns#" xmlns:dc="http://purl.org/dc/elements/1.1/" viewBox="0 0 48 48.000001">
 <metadata id="metadata4236">
  <rdf:RDF>
   <cc:Work rdf:about="">
    <dc:format>image/svg+xml</dc:format>
    <dc:type rdf:resource="http://purl.org/dc/dcmitype/StillImage"/>
    <dc:title/>
   </cc:Work>
  </rdf:RDF>
 </metadata>
 <g id="layer1" transform="translate(0 -1004.4)">
  <path id="path4444" d="m15 1017.4a11 11 0 0 0 -11 11 11 11 0 0 0 11 11 11 11 0 0 0 10.572 -8h8.4277v5.0273h6.9648v-5.0273h3.0352v-7h-18.754a11 11 0 0 0 -10.246 -7z" fill="#4bae4f"/>
  <circle id="circle4446" opacity=".2" cy="1029.4" cx="15" r="4"/>
  <circle id="circle4448" cx="15" cy="1028.4" r="4" fill="#f9f9f9"/>
  <path id="path4474" opacity=".2" d="m15 1017.4a11 11 0 0 0 -11 11 11 11 0 0 0 0.0215 0.4141 11 11 0 0 1 10.978 -10.414 11 11 0 0 1 10.246 7h18.754v-1h-18.754a11 11 0 0 0 -10.246 -7z" fill="#fff"/>
  <path id="path4824" opacity=".3" d="m4.0215 23.414a11 11 0 0 0 -0.0215 0.586 11 11 0 0 0 11 11 11 11 0 0 0 10.572 -8h8.428v-1h-8.428a11 11 0 0 1 -10.572 8 11 11 0 0 1 -10.978 -10.586zm36.944 2.586v1h3.035v-1h-3.035zm-6.965 5.027v1h6.965v-1h-6.965z" transform="translate(0 1004.4)"/>
 </g>
</svg>
